packages/crayons-core/src/components/icon/icon-assets/icons/modify.svg

<?xml version="1.0" encoding="UTF-8"?>
<svg width="14px" height="14px" viewBox="0 0 14 14" version="1.1" xmlns="http://www.w3.org/2000/svg" xmlns:xlink="http://www.w3.org/1999/xlink">
    <!-- Generator: Sketch 52.6 (67491) - http://www.bohemiancoding.com/sketch -->
    <title>icon/modify</title>
    <desc>Created with Sketch.</desc>
    <g id="Icons-✅" stroke="none" stroke-width="1" fill="none" fill-rule="evenodd">
        <g id="Icons" transform="translate(-573.000000, -1597.000000)" fill="currentColor">
            <g id="icon/modify" transform="translate(573.000000, 1597.000000)">
                <g id="modify">
                    <path d="M3.81,7.27 C3.82837894,7.11961906 3.89504971,6.97925954 4,6.87 L10.39,0.51 C10.7059894,0.187494627 11.1384925,0.00575507654 11.59,0.00575507654 C12.0415075,0.00575507654 12.4740106,0.187494627 12.79,0.51 L13.5,1.22 C13.8190658,1.53796097 13.9988965,1.96955473 14,2.42 C14.0011189,2.87088972 13.8209462,3.30330406 13.5,3.62 L12.58,4.54 L7.13,10 C7.02212226,10.1086108 6.88161528,10.1788643 6.73,10.2 L4.25,10.55 L4.15,10.55 C3.96558973,10.5463047 3.78985544,10.47099 3.66,10.34 C3.50186868,10.187233 3.42736087,9.96743495 3.46,9.75 L3.81,7.27 Z M11.81,1.49 L11.8,1.49 C11.6926857,1.40110282 11.5373143,1.40110282 11.43,1.49 L11,1.91 L12.1,3.05 L12.52,2.62 C12.5774722,2.56526461 12.61,2.48936631 12.61,2.41 C12.61,2.33063369 12.5774722,2.25473539 12.52,2.2 L11.81,1.49 Z M5.17,7.7 L5,9 L6.3,8.83 L11.1,4 L10,2.9 L5.17,7.7 Z M13.3,6.88 C13.4891693,6.87992277 13.6703164,6.95641163 13.8021822,7.09204507 C13.9340481,7.2276785 14.0054049,7.41090792 14,7.6 L14,11.6 C13.9945208,12.9232072 12.9232072,13.9945208 11.6,14 L2.4,14 C1.0767928,13.9945208 0.0054791892,12.9232072 -1.0658141e-14,11.6 L-1.0658141e-14,2.4 C0.0054791892,1.0767928 1.0767928,0.0054791892 2.4,8.8817842e-16 L6.4,8.8817842e-16 C6.65008592,-3.72656961e-09 6.88117483,0.133419242 7.00621779,0.349999997 C7.13126075,0.566580752 7.13126075,0.833419248 7.00621779,1.05 C6.88117483,1.26658076 6.65008592,1.4 6.4,1.4 L2.4,1.4 C1.84771525,1.4 1.4,1.84771525 1.4,2.4 L1.4,11.58 C1.4,12.1322847 1.84771525,12.58 2.4,12.58 L11.6,12.58 C12.1522847,12.58 12.6,12.1322847 12.6,11.58 L12.6,7.58 C12.6,7.19340068 12.9134007,6.88 13.3,6.88 Z" id="Combined-Shape"></path>
                </g>
            </g>
        </g>
    </g>
</svg>

<svg viewBox="0 0 14 14"><path d="M3.81 7.27a.7.7 0 0 1 .19-.4L10.39.51a1.68 1.68 0 0 1 2.4 0l.71.71a1.686 1.686 0 0 1 0 2.4l-.92.92L7.13 10a.7.7 0 0 1-.4.2l-2.48.35h-.1a.71.71 0 0 1-.49-.21.68.68 0 0 1-.2-.59l.35-2.48zm8-5.78h-.01a.29.29 0 0 0-.37 0l-.43.42 1.1 1.14.42-.43a.29.29 0 0 0 0-.42l-.71-.71zM5.17 7.7L5 9l1.3-.17L11.1 4 10 2.9 5.17 7.7zm8.13-.82a.7.7 0 0 1 .7.72v4a2.41 2.41 0 0 1-2.4 2.4H2.4A2.41 2.41 0 0 1 0 11.6V2.4A2.41 2.41 0 0 1 2.4 0h4a.7.7 0 1 1 0 1.4h-4a1 1 0 0 0-1 1v9.18a1 1 0 0 0 1 1h9.2a1 1 0 0 0 1-1v-4a.7.7 0 0 1 .7-.7z" fill="currentColor" fill-rule="evenodd"/></svg>
